public/images/poses-lg/StandingForwardFold.svg

<svg width="800" height="800" fill="none" xmlns="http://www.w3.org/2000/svg"><g clip-path="url(#a)"><path d="M445.483 678.754c10.712-6.573 40.052-15.536 44.339 21.289 2.722 23.372 9.693 57.677 27.688 67.432 17.996 9.753-21.655 35.137-43.355 18.373-21.705-16.766-30.6-47.082-22.414-69.681 8.189-22.604-6.258-37.413-6.258-37.413Z" fill="#000" stroke="#000" stroke-width="5" stroke-miterlimit="10"/><path d="M429.56 588.604c2.44 12.186 4.879 26.81 0 38.996-4.88 12.186-31.713 26.809-46.349 17.06-14.636-9.748-17.076-12.186-19.515-19.496-2.439-7.312-9.757-31.684-9.757-31.684l21.955-21.935 39.03-2.437 14.636 19.496Z" fill="#fff" stroke="#000" stroke-width="5" stroke-miterlimit="10"/><path d="M429.56 588.604c2.44 12.186 4.879 26.81 0 38.996-4.88 12.186-31.713 26.809-46.349 17.06-14.636-9.748-17.076-12.186-19.515-19.496-2.439-7.312-9.757-31.684-9.757-31.684l21.955-21.935 39.03-2.437 14.636 19.496Z" stroke="#000" stroke-width="5" stroke-miterlimit="10"/><path d="M406.295 656.597c8.628 1.889 11.818 9.665 19.955 14.968 12.925 8.418 11.724 32.246-.498 44.398-16.137 16.044-77.341-37.28-69.599-48.011 4.583-6.353 18.965-12.543 35.495-11.605 5.32.302 14.647.25 14.647.25Z" fill="#fff" stroke="#000" stroke-width="5" stroke-miterlimit="10"/><path d="M406.295 656.597c8.628 1.889 11.818 9.665 19.955 14.968 12.925 8.418 11.724 32.246-.498 44.398-16.137 16.044-77.341-37.28-69.599-48.011 4.583-6.353 18.965-12.543 35.495-11.605 5.32.302 14.647.25 14.647.25Z" stroke="#000" stroke-width="5" stroke-miterlimit="10"/><path d="M412.351 716.72c-10.411-9.72-22.598-34.711-7.175-44.893 17.337-11.438 2.913-13.364-.959-14.723-3.873-1.355-15.722 1.139-15.184-1.069.539-2.211 26.338-13.792 43.45-2.111 17.109 11.681 19.11 23.967 16.701 36.115-2.411 12.143-13.389 25.712-25.37 29.232-11.978 3.518-11.463-2.551-11.463-2.551Z" fill="#000" stroke="#000" stroke-width="5" stroke-miterlimit="10"/><path d="M412.484 632.474c0 12.186-19.897 52.324-24.394 65.805-4.879 14.625-9.757 46.307-14.637 56.056-4.878 9.749-9.757 19.497-17.076 19.497-7.318 0-14.636-21.934-7.318-48.744 7.319-26.81 14.637-51.182 19.516-73.116 4.878-21.935 4.878-24.372 4.878-24.372" fill="#fff"/><path d="M412.484 632.474c0 12.186-19.897 52.324-24.394 65.805-4.879 14.625-9.757 46.307-14.637 56.056-4.878 9.749-9.757 19.497-17.076 19.497-7.318 0-14.636-21.934-7.318-48.744 7.319-26.81 14.637-51.182 19.516-73.116 4.878-21.935 4.878-24.372 4.878-24.372" stroke="#000" stroke-width="5" stroke-miterlimit="10"/><path d="M412.484 632.474c0 12.186-19.897 52.324-24.394 65.805-4.879 14.625-9.757 46.307-14.637 56.056-4.878 9.749-9.757 19.497-17.076 19.497-7.318 0-14.636-21.934-7.318-48.744 7.319-26.81 14.637-51.182 19.516-73.116 4.878-21.935 4.878-24.372 4.878-24.372" stroke="#000" stroke-width="5" stroke-miterlimit="10"/><path d="M383.211 725.088c2.44 4.875-2.44 26.81-7.317 29.247-4.88 2.437-9.758-4.875-9.758-12.186s4.879-14.623 9.758-17.061c4.878-2.436 7.317 0 7.317 0Z" fill="#fff" stroke="#000" stroke-width="5" stroke-miterlimit="10"/><path d="M383.211 725.088c2.44 4.875-2.44 26.81-7.317 29.247-4.88 2.437-9.758-4.875-9.758-12.186s4.879-14.623 9.758-17.061c4.878-2.436 7.317 0 7.317 0Z" stroke="#000" stroke-width="5" stroke-miterlimit="10"/><path d="M377.041 432.715c11.935 22.083 35.744 71.113 42.685 102.882 6.942 31.768 9.176 48.857 9.119 53.731 0 0-14.403-19.672-38.854-15.09-24.451 4.584-29.504 19.15-29.59 26.461-.088 7.311 2.149 24.401 2.149 24.401s-24.278-10.042-26.312-44.187c-2.03-34.147.35-29.244-6.561-63.453-6.911-34.204-21.168-66.062-21.168-66.062l68.532-18.683Z" fill="#fff" stroke="#000" stroke-width="5" stroke-miterlimit="10"/><path d="M377.041 432.715c11.935 22.083 35.744 71.113 42.685 102.882 6.942 31.768 9.176 48.857 9.119 53.731 0 0-14.403-19.672-38.854-15.09-24.451 4.584-29.504 19.15-29.59 26.461-.088 7.311 2.149 24.401 2.149 24.401s-24.278-10.042-26.312-44.187c-2.03-34.147.35-29.244-6.561-63.453-6.911-34.204-21.168-66.062-21.168-66.062l68.532-18.683Z" stroke="#000" stroke-width="5" stroke-miterlimit="10"/><path d="M322.226 466.744s7.318-2.438 21.955-9.749c14.637-7.311 31.712-24.373 31.712-24.373-2.44-4.874-24.395-43.869-46.349-56.055-21.955-12.187-65.864 0-74.166 24.072-11.161 32.357 3.209 99.08 2.193 122.301-.99 22.775-.428 51.7-1.074 74.637-.788 27.828-1.303 30.827.915 62.18 4.748 67.128 2.928 81.22 4.114 122.083.205 7.157 6.12 12.814 13.283 12.669l83.515-1.181c4.671-.091 6.672-7.049 2.275-8.625-18.706-6.717-54.382-10.596-61.821-19.74-7.47-9.176-6.56-16.854-7.113-23.991-3.811-49.316 5.675-94.917 16.28-143.396 6.914-31.615 8.61-54.876 12.891-89.232 1.305-10.49 2.122-24.799 1.388-39.165l.002-2.435Z" fill="#fff" stroke="#000" stroke-width="5" stroke-miterlimit="10"/><path d="M322.226 466.744s7.318-2.438 21.955-9.749c14.637-7.311 31.712-24.373 31.712-24.373-2.44-4.874-24.395-43.869-46.349-56.055-21.955-12.187-65.864 0-74.166 24.072-11.161 32.357 3.209 99.08 2.193 122.301-.99 22.775-.428 51.7-1.074 74.637-.788 27.828-1.303 30.827.915 62.18 4.748 67.128 2.928 81.22 4.114 122.083.205 7.157 6.12 12.814 13.283 12.669l83.515-1.181c4.671-.091 6.672-7.049 2.275-8.625-18.706-6.717-54.382-10.596-61.821-19.74-7.47-9.176-6.56-16.854-7.113-23.991-3.811-49.316 5.675-94.917 16.28-143.396 6.914-31.615 8.61-54.876 12.891-89.232 1.305-10.49 2.122-24.799 1.388-39.165l.002-2.435Z" stroke="#000" stroke-width="5" stroke-miterlimit="10"/><path d="M260.621 721.992c15.018 5.179 30.21 0 30.21 0" stroke="#000" stroke-width="5" stroke-miterlimit="10"/></g><defs><clipPath id="a"><path fill="#fff" d="M0 0h800v800H0z"/></clipPath></defs></svg>

<svg width="800" height="800" viewBox="0 0 800 800" fill="none" xmlns="http://www.w3.org/2000/svg">
<g clip-path="url(#clip0_298_10043)">
<path d="M445.483 678.754C456.195 672.181 485.535 663.218 489.822 700.043C492.544 723.415 499.515 757.72 517.51 767.475C535.506 777.228 495.855 802.612 474.155 785.848C452.45 769.082 443.555 738.766 451.741 716.167C459.93 693.563 445.483 678.754 445.483 678.754Z" fill="black" stroke="black" stroke-width="5" stroke-miterlimit="10"/>
<path d="M429.56 588.604C432 600.79 434.439 615.414 429.56 627.6C424.68 639.786 397.847 654.409 383.211 644.66C368.575 634.912 366.135 632.474 363.696 625.164C361.257 617.852 353.939 593.48 353.939 593.48L375.894 571.545L414.924 569.108L429.56 588.604Z" fill="white" stroke="black" stroke-width="5" stroke-miterlimit="10"/>
<path d="M429.56 588.604C432 600.79 434.439 615.414 429.56 627.6C424.68 639.786 397.847 654.409 383.211 644.66C368.575 634.912 366.135 632.474 363.696 625.164C361.257 617.852 353.939 593.48 353.939 593.48L375.894 571.545L414.924 569.108L429.56 588.604Z" stroke="black" stroke-width="5" stroke-miterlimit="10"/>
<path d="M406.295 656.597C414.923 658.486 418.113 666.262 426.25 671.565C439.175 679.983 437.974 703.811 425.752 715.963C409.615 732.007 348.411 678.683 356.153 667.952C360.736 661.599 375.118 655.409 391.648 656.347C396.968 656.649 406.295 656.597 406.295 656.597Z" fill="white" stroke="black" stroke-width="5" stroke-miterlimit="10"/>
<path d="M406.295 656.597C414.923 658.486 418.113 666.262 426.25 671.565C439.175 679.983 437.974 703.811 425.752 715.963C409.615 732.007 348.411 678.683 356.153 667.952C360.736 661.599 375.118 655.409 391.648 656.347C396.968 656.649 406.295 656.597 406.295 656.597Z" stroke="black" stroke-width="5" stroke-miterlimit="10"/>
<path d="M412.351 716.72C401.94 707 389.753 682.009 405.176 671.827C422.513 660.389 408.089 658.463 404.217 657.104C400.344 655.749 388.495 658.243 389.033 656.035C389.572 653.824 415.371 642.243 432.483 653.924C449.592 665.605 451.593 677.891 449.184 690.039C446.773 702.182 435.795 715.751 423.814 719.271C411.836 722.789 412.351 716.72 412.351 716.72Z" fill="black" stroke="black" stroke-width="5" stroke-miterlimit="10"/>
<path d="M412.484 632.474C412.484 644.66 392.587 684.798 388.09 698.279C383.211 712.904 378.333 744.586 373.453 754.335C368.575 764.084 363.696 773.832 356.377 773.832C349.059 773.832 341.741 751.898 349.059 725.088C356.378 698.278 363.696 673.906 368.575 651.972C373.453 630.037 373.453 627.6 373.453 627.6" fill="white"/>
<path d="M412.484 632.474C412.484 644.66 392.587 684.798 388.09 698.279C383.211 712.904 378.333 744.586 373.453 754.335C368.575 764.084 363.696 773.832 356.377 773.832C349.059 773.832 341.741 751.898 349.059 725.088C356.378 698.278 363.696 673.906 368.575 651.972C373.453 630.037 373.453 627.6 373.453 627.6" stroke="black" stroke-width="5" stroke-miterlimit="10"/>
<path d="M412.484 632.474C412.484 644.66 392.587 684.798 388.09 698.279C383.211 712.904 378.333 744.586 373.453 754.335C368.575 764.084 363.696 773.832 356.377 773.832C349.059 773.832 341.741 751.898 349.059 725.088C356.378 698.278 363.696 673.906 368.575 651.972C373.453 630.037 373.453 627.6 373.453 627.6" stroke="black" stroke-width="5" stroke-miterlimit="10"/>
<path d="M383.211 725.088C385.651 729.963 380.771 751.898 375.894 754.335C371.014 756.772 366.136 749.46 366.136 742.149C366.136 734.838 371.015 727.526 375.894 725.088C380.772 722.652 383.211 725.088 383.211 725.088Z" fill="white" stroke="black" stroke-width="5" stroke-miterlimit="10"/>
<path d="M383.211 725.088C385.651 729.963 380.771 751.898 375.894 754.335C371.014 756.772 366.136 749.46 366.136 742.149C366.136 734.838 371.015 727.526 375.894 725.088C380.772 722.652 383.211 725.088 383.211 725.088Z" stroke="black" stroke-width="5" stroke-miterlimit="10"/>
<path d="M377.041 432.715C388.976 454.798 412.785 503.828 419.726 535.597C426.668 567.365 428.902 584.454 428.845 589.328C428.845 589.328 414.442 569.656 389.991 574.238C365.54 578.822 360.487 593.388 360.401 600.699C360.313 608.01 362.55 625.1 362.55 625.1C362.55 625.1 338.272 615.058 336.238 580.913C334.208 546.766 336.588 551.669 329.677 517.46C322.766 483.256 308.509 451.398 308.509 451.398L377.041 432.715Z" fill="white" stroke="black" stroke-width="5" stroke-miterlimit="10"/>
<path d="M377.041 432.715C388.976 454.798 412.785 503.828 419.726 535.597C426.668 567.365 428.902 584.454 428.845 589.328C428.845 589.328 414.442 569.656 389.991 574.238C365.54 578.822 360.487 593.388 360.401 600.699C360.313 608.01 362.55 625.1 362.55 625.1C362.55 625.1 338.272 615.058 336.238 580.913C334.208 546.766 336.588 551.669 329.677 517.46C322.766 483.256 308.509 451.398 308.509 451.398L377.041 432.715Z" stroke="black" stroke-width="5" stroke-miterlimit="10"/>
<path d="M322.226 466.744C322.226 466.744 329.544 464.306 344.181 456.995C358.818 449.684 375.893 432.622 375.893 432.622C373.453 427.748 351.498 388.753 329.544 376.567C307.589 364.38 263.68 376.567 255.378 400.639C244.217 432.996 258.587 499.719 257.571 522.94C256.581 545.715 257.143 574.64 256.497 597.577C255.709 625.405 255.194 628.404 257.412 659.757C262.16 726.885 260.34 740.977 261.526 781.84C261.731 788.997 267.646 794.654 274.809 794.509L358.324 793.328C362.995 793.237 364.996 786.279 360.599 784.703C341.893 777.986 306.217 774.107 298.778 764.963C291.308 755.787 292.218 748.109 291.665 740.972C287.854 691.656 297.34 646.055 307.945 597.576C314.859 565.961 316.555 542.7 320.836 508.344C322.141 497.854 322.958 483.545 322.224 469.179L322.226 466.744Z" fill="white" stroke="black" stroke-width="5" stroke-miterlimit="10"/>
<path d="M322.226 466.744C322.226 466.744 329.544 464.306 344.181 456.995C358.818 449.684 375.893 432.622 375.893 432.622C373.453 427.748 351.498 388.753 329.544 376.567C307.589 364.38 263.68 376.567 255.378 400.639C244.217 432.996 258.587 499.719 257.571 522.94C256.581 545.715 257.143 574.64 256.497 597.577C255.709 625.405 255.194 628.404 257.412 659.757C262.16 726.885 260.34 740.977 261.526 781.84C261.731 788.997 267.646 794.654 274.809 794.509L358.324 793.328C362.995 793.237 364.996 786.279 360.599 784.703C341.893 777.986 306.217 774.107 298.778 764.963C291.308 755.787 292.218 748.109 291.665 740.972C287.854 691.656 297.34 646.055 307.945 597.576C314.859 565.961 316.555 542.7 320.836 508.344C322.141 497.854 322.958 483.545 322.224 469.179L322.226 466.744Z" stroke="black" stroke-width="5" stroke-miterlimit="10"/>
<path d="M260.621 721.992C275.639 727.171 290.831 721.992 290.831 721.992" stroke="black" stroke-width="5" stroke-miterlimit="10"/>
</g>
<defs>
<clipPath id="clip0_298_10043">
<rect width="800" height="800" fill="white"/>
</clipPath>
</defs>
</svg>
